frontend/ui/play/assets/images/mpchess/wK.svg

<?xml version="1.0" encoding="UTF-8"?>
<svg xmlns="http://www.w3.org/2000/svg" xmlns:xlink="http://www.w3.org/1999/xlink" width="150px" height="150px" viewBox="0 0 150 150" version="1.1">
<g id="surface1">
<path style="fill-rule:nonzero;fill:rgb(100%,100%,100%);fill-opacity:1;stroke-width:0.386043;stroke-linecap:butt;stroke-linejoin:miter;stroke:rgb(0%,0%,0%);stroke-opacity:1;stroke-miterlimit:4;" d="M 6.541908 294.177949 C 7.620095 294.177949 7.667056 295.036081 7.667056 295.672992 L 2.06911 295.672992 C 2.06911 295.022962 2.115113 294.177949 3.19306 294.177949 Z M 6.541908 294.177949 " transform="matrix(16.303413,0,0,15.185602,-3.538245,-4357.812167)"/>
<path style="fill-rule:nonzero;fill:rgb(100%,100%,100%);fill-opacity:1;stroke-width:0.372292;stroke-linecap:butt;stroke-linejoin:miter;stroke:rgb(0%,0%,0%);stroke-opacity:1;stroke-miterlimit:4;" d="M 4.479936 288.115978 L 4.479936 288.600092 L 3.942999 288.600092 L 3.942999 289.353015 L 4.479936 289.353015 C 4.479936 289.934878 4.338094 289.828898 3.947072 290.069926 C 1.529058 289.098096 0.212952 292.124966 3.008091 294.17692 L 6.723044 294.16303 C 9.570894 292.124966 8.226994 289.099125 5.809939 290.085874 C 5.349913 289.833013 5.265095 289.975006 5.265095 289.353015 L 5.813054 289.353015 L 5.813054 288.600092 L 5.265095 288.600092 L 5.265095 288.115978 Z M 6.408932 291.173973 C 7.052969 291.239053 7.303108 292.047025 5.61898 293.202004 L 5.61898 291.585033 C 5.930936 291.269921 6.115905 291.144906 6.408932 291.175002 Z M 3.447033 291.181947 C 3.718976 291.19198 3.849077 291.321111 4.121978 291.597123 L 4.121978 293.213065 C 2.439048 292.059115 2.688948 291.250886 3.332985 291.186063 Z M 3.447033 291.181947 " transform="matrix(16.303413,0,0,15.185602,-3.538245,-4357.812167)"/>
</g>
</svg>

<svg xmlns="http://www.w3.org/2000/svg" width="10mm" height="10mm" viewBox="0 0 10 10"><g style="fill:#fff;fill-opacity:1"><g style="fill:#fff;fill-opacity:1;stroke-width:.09651081;stroke-miterlimit:4;stroke-dasharray:none"><path d="M6.542 294.178c1.078 0 1.125.858 1.125 1.495H2.069c0-.65.046-1.495 1.124-1.495z" style="fill:#fff;fill-opacity:1;stroke:#000;stroke-width:.38604325;stroke-linecap:butt;stroke-linejoin:miter;stroke-miterlimit:4;stroke-dasharray:none;stroke-opacity:1" transform="matrix(1.07361 0 0 1 -.233 -286.97)"/><path d="M4.48 288.116v.484h-.537v.753h.537c0 .582-.142.476-.533.717-2.418-.972-3.734 2.055-.939 4.107l3.715-.014c2.848-2.038 1.504-5.064-.913-4.077-.46-.253-.545-.111-.545-.733h.548v-.753h-.548v-.484zm1.929 3.058c.644.065.894.873-.79 2.028v-1.617c.312-.315.497-.44.79-.41zm-2.962.008c.272.01.402.139.675.415v1.616c-1.683-1.154-1.433-1.962-.789-2.027a.85.85 0 0 1 .114-.004z" style="fill:#fff;fill-opacity:1;stroke:#000;stroke-width:.37229237;stroke-linecap:butt;stroke-linejoin:miter;stroke-miterlimit:4;stroke-dasharray:none;stroke-opacity:1" transform="matrix(1.07361 0 0 1 -.233 -286.97)"/></g></g></svg>
